src/frontend/public/images/svg/read-mail.svg

<svg width="57" height="58" viewBox="0 0 57 58" fill="none" xmlns="http://www.w3.org/2000/svg">
<g filter="url(#filter0_d_12489_6240)">
<path d="M3.5 20.5975L27.9355 3.88607C28.2758 3.6533 28.7242 3.6533 29.0645 3.88607L53.5 20.5975V52.5C53.5 53.0523 53.0523 53.5 52.5 53.5H4.5C3.94771 53.5 3.5 53.0523 3.5 52.5V20.5975Z" fill="white"/>
<path d="M3.5 20.5975L27.9355 3.88607C28.2758 3.6533 28.7242 3.6533 29.0645 3.88607L53.5 20.5975M3.5 20.5975V52.5C3.5 53.0523 3.94771 53.5 4.5 53.5H52.5C53.0523 53.5 53.5 53.0523 53.5 52.5V20.5975M3.5 20.5975L27.9149 38.213C28.2642 38.465 28.7358 38.465 29.0851 38.213L53.5 20.5975" stroke="#CACAFB" stroke-linejoin="round"/>
<path d="M3.5 20.5975L27.9355 3.88607C28.2758 3.6533 28.7242 3.6533 29.0645 3.88607L53.5 20.5975M3.5 20.5975V52.5C3.5 53.0523 3.94771 53.5 4.5 53.5H52.5C53.0523 53.5 53.5 53.0523 53.5 52.5V20.5975M3.5 20.5975L27.9149 38.213C28.2642 38.465 28.7358 38.465 29.0851 38.213L53.5 20.5975" stroke="url(#paint0_linear_12489_6240)" stroke-opacity="0.23" stroke-linejoin="round"/>
<path d="M53.5 53.5L34.0555 34.5811" stroke="#CACAFB" stroke-linejoin="round"/>
<path d="M53.5 53.5L34.0555 34.5811" stroke="url(#paint1_linear_12489_6240)" stroke-opacity="0.23" stroke-linejoin="round"/>
<path d="M3.5 53.5L22.9444 34.5811" stroke="#CACAFB" stroke-linejoin="round"/>
<path d="M3.5 53.5L22.9444 34.5811" stroke="url(#paint2_linear_12489_6240)" stroke-opacity="0.23" stroke-linejoin="round"/>
</g>
<defs>
<filter id="filter0_d_12489_6240" x="1" y="3.21143" width="55" height="54.7886" filterUnits="userSpaceOnUse" color-interpolation-filters="sRGB">
<feFlood flood-opacity="0" result="BackgroundImageFix"/>
<feColorMatrix in="SourceAlpha" type="matrix" values="0 0 0 0 0 0 0 0 0 0 0 0 0 0 0 0 0 0 127 0" result="hardAlpha"/>
<feOffset dy="2"/>
<feGaussianBlur stdDeviation="1"/>
<feComposite in2="hardAlpha" operator="out"/>
<feColorMatrix type="matrix" values="0 0 0 0 0 0 0 0 0 0 0 0 0 0 0 0 0 0 0.06 0"/>
<feBlend mode="normal" in2="BackgroundImageFix" result="effect1_dropShadow_12489_6240"/>
<feBlend mode="normal" in="SourceGraphic" in2="effect1_dropShadow_12489_6240" result="shape"/>
</filter>
<linearGradient id="paint0_linear_12489_6240" x1="28.5" y1="3.5" x2="28.5" y2="53.5" gradientUnits="userSpaceOnUse">
<stop stop-color="white" stop-opacity="0"/>
<stop offset="1" stop-color="white"/>
</linearGradient>
<linearGradient id="paint1_linear_12489_6240" x1="43.7778" y1="34.5811" x2="43.7778" y2="53.5" gradientUnits="userSpaceOnUse">
<stop stop-color="white" stop-opacity="0"/>
<stop offset="1" stop-color="white"/>
</linearGradient>
<linearGradient id="paint2_linear_12489_6240" x1="13.2222" y1="34.5811" x2="13.2222" y2="53.5" gradientUnits="userSpaceOnUse">
<stop stop-color="white" stop-opacity="0"/>
<stop offset="1" stop-color="white"/>
</linearGradient>
</defs>
</svg>

<svg xmlns="http://www.w3.org/2000/svg" width="57" height="58" fill="none"><g filter="url(#a)"><path fill="#fff" d="M3.5 20.598 27.936 3.886a1 1 0 0 1 1.128 0L53.5 20.598V52.5a1 1 0 0 1-1 1h-48a1 1 0 0 1-1-1z"/><path stroke="#cacafb" stroke-linejoin="round" d="M3.5 20.598 27.936 3.886a1 1 0 0 1 1.128 0L53.5 20.598m-50 0V52.5a1 1 0 0 0 1 1h48a1 1 0 0 0 1-1V20.598m-50 0 24.415 17.615a1 1 0 0 0 1.17 0L53.5 20.598"/><path stroke="url(#b)" stroke-linejoin="round" stroke-opacity=".23" d="M3.5 20.598 27.936 3.886a1 1 0 0 1 1.128 0L53.5 20.598m-50 0V52.5a1 1 0 0 0 1 1h48a1 1 0 0 0 1-1V20.598m-50 0 24.415 17.615a1 1 0 0 0 1.17 0L53.5 20.598"/><path stroke="#cacafb" stroke-linejoin="round" d="M53.5 53.5 34.056 34.581"/><path stroke="url(#c)" stroke-linejoin="round" stroke-opacity=".23" d="M53.5 53.5 34.056 34.581"/><path stroke="#cacafb" stroke-linejoin="round" d="m3.5 53.5 19.444-18.919"/><path stroke="url(#d)" stroke-linejoin="round" stroke-opacity=".23" d="m3.5 53.5 19.444-18.919"/></g><defs><linearGradient id="b" x1="28.5" x2="28.5" y1="3.5" y2="53.5" gradientUnits="userSpaceOnUse"><stop stop-color="#fff" stop-opacity="0"/><stop offset="1" stop-color="#fff"/></linearGradient><linearGradient id="c" x1="43.778" x2="43.778" y1="34.581" y2="53.5" gradientUnits="userSpaceOnUse"><stop stop-color="#fff" stop-opacity="0"/><stop offset="1" stop-color="#fff"/></linearGradient><linearGradient id="d" x1="13.222" x2="13.222" y1="34.581" y2="53.5" gradientUnits="userSpaceOnUse"><stop stop-color="#fff" stop-opacity="0"/><stop offset="1" stop-color="#fff"/></linearGradient><filter id="a" width="55" height="54.789" x="1" y="3.211" color-interpolation-filters="sRGB" filterUnits="userSpaceOnUse"><feFlood flood-opacity="0" result="BackgroundImageFix"/><feColorMatrix in="SourceAlpha" result="hardAlpha" values="0 0 0 0 0 0 0 0 0 0 0 0 0 0 0 0 0 0 127 0"/><feOffset dy="2"/><feGaussianBlur stdDeviation="1"/><feComposite in2="hardAlpha" operator="out"/><feColorMatrix values="0 0 0 0 0 0 0 0 0 0 0 0 0 0 0 0 0 0 0.06 0"/><feBlend in2="BackgroundImageFix" result="effect1_dropShadow_12489_6240"/><feBlend in="SourceGraphic" in2="effect1_dropShadow_12489_6240" result="shape"/></filter></defs></svg>
